X: 38710
T: Strayaway Child, The
R: jig
M: 6/8
K: Eminor
|:"Em" BEE GEE|BEE G2 A|BEE A2 G|"D" FDF Adc|
"Em" BEE GEE|BEE G2 A|"Bm" !turn!B2 B B2 A|GED"Em" E3:|
"Em" Bee BeB|"D" dBG AGA|"Em" Bee BeB|"D" dBG A3|
"Em" Bee BeB|"D" dBG AGA|"C" !turn!B2 B B2 A|"Bm" GED"Em" E3|
"Em" Bee BeB|"D" dBG AGA|"Em" Bee BeB|"Bm" dBG A2 f|
"G" gfe dcB|"Am" AGA BGE|"Bm" AGE DB, D|"Em" !turn!E2 E E3|
|:"Em" EAG EDE|G2 G BAG|"C" AGE"D" DB,D|"Em" !turn!E3 E3|
"Em" EAG EDE|!turn!G2 G BAG|"C" AGE"D" DB,D|"Em" !turn!E3 E3:|
|:"Em" efe ded|cBA !turn!B2 B|"G" GAB dBG|"D" AGE D2 c|
"Em" BAG EDE|GAB cBA|"Em" BAG"D" EAG|"Em" !turn!E2 D E3:|
|:"Em" Bee efg|"D" fdf eBA|"Em" Bee efg|"D" fdf"Em" e2 f|
"G" gbg faf|"Am" edB AGA|"Bm" BGE DB,D|"Em" !turn!E3 E3:|
|:"Em" edB edB|"D" AGA BGE|"Em" edB edB|"D" AGA"Em" B2 d|
"G" edB gfe|"Am" dcB AGA|"C" BGE DB,D|"Em" !turn!E3 E3:|

